svg/rotate_left.svg

<svg xmlns="http://www.w3.org/2000/svg" viewBox="0 0 32 32" enable-background="new 0 0 32 32"><path d="M 15 3 L 15 5 L 16 5 L 16 3 L 15 3 z M 12.84375 3.4375 L 12 3.65625 L 11.96875 3.6875 L 11.9375 3.6875 L 11.09375 4 L 11.0625 4 L 11.03125 4.03125 L 10.9375 4.0625 L 11.78125 5.875 L 11.8125 5.875 L 11.875 5.84375 L 12.5625 5.59375 L 12.625 5.5625 L 13.40625 5.34375 L 12.84375 3.4375 z M 20 4 L 20 5 L 20 12 L 22 12 L 22 6.78125 C 25.029465 8.7614222 27 12.060564 27 16 C 27 22.054545 22.054545 27 16 27 C 9.9454545 27 5 22.054545 5 16 L 5 15 L 3 15 L 3 16 C 3 23.145455 8.8545455 29 16 29 C 23.145455 29 29 23.145455 29 16 C 29 11.941019 27.204846 8.3854935 24.34375 6 L 28 6 L 28 4 L 21 4 L 20 4 z M 9.15625 5 L 8.625 5.34375 L 8.59375 5.375 L 8.5625 5.375 L 7.875 5.90625 L 7.84375 5.9375 L 7.8125 5.9375 L 7.53125 6.1875 L 8.84375 7.6875 L 9.0625 7.5 L 9.125 7.46875 L 9.6875 7.03125 L 9.75 7 L 10.21875 6.6875 L 9.15625 5 z M 6.09375 7.59375 L 5.875 7.875 L 5.84375 7.90625 L 5.8125 7.9375 L 5.28125 8.625 L 5.28125 8.65625 L 5.25 8.6875 L 4.90625 9.21875 L 6.59375 10.3125 L 6.875 9.84375 L 6.9375 9.78125 L 7.375 9.1875 L 7.40625 9.15625 L 7.625 8.90625 L 6.09375 7.59375 z M 3.96875 11 L 3.9375 11.125 L 3.90625 11.15625 L 3.90625 11.1875 L 3.59375 12 L 3.59375 12.03125 L 3.5625 12.09375 L 3.34375 12.9375 L 5.25 13.46875 L 5.46875 12.6875 L 5.5 12.625 L 5.75 11.9375 L 5.78125 11.875 L 5.78125 11.84375 L 3.96875 11 z"/></svg>

<svg xmlns="http://www.w3.org/2000/svg" viewBox="0 0 32 32"><path d="M15 3v2h1V3h-1zm-2.156.438L12 3.655l-.03.03-.033.002-.843.312h-.03l-.033.03-.092.032.843 1.813h.033l.062-.03.688-.25.062-.032.78-.22-.56-1.905zM20 4v8h2V6.78c3.03 1.98 5 5.28 5 9.22 0 6.055-4.945 11-11 11S5 22.055 5 16v-1H3v1c0 7.145 5.855 13 13 13s13-5.855 13-13c0-4.06-1.795-7.615-4.656-10H28V4h-8zM9.156 5l-.53.344-.032.03h-.03l-.69.532-.03.032h-.032l-.28.25 1.312 1.5.22-.188.06-.03.563-.44L9.75 7l.47-.313L9.155 5zM6.094 7.594l-.22.28-.03.032-.032.032-.53.687v.03l-.032.033-.344.53 1.688 1.095.28-.47.064-.062.437-.592.03-.032.22-.25-1.53-1.312zM3.97 11l-.033.125-.03.03v.033L3.593 12v.03l-.03.064-.22.844 1.906.53.22-.78.03-.063.25-.688.03-.062v-.03L3.97 11z"/></svg>
